img/question_inp.svg

<svg width="16" height="17" viewBox="0 0 16 17" fill="none" xmlns="http://www.w3.org/2000/svg">
<mask id="mask0_2455_17671" style="mask-type:alpha" maskUnits="userSpaceOnUse" x="1" y="1" width="14" height="15">
<path fill-rule="evenodd" clip-rule="evenodd" d="M1.33398 1.8363H14.6673V15.1696H1.33398V1.8363Z" fill="white"/>
</mask>
<g mask="url(#mask0_2455_17671)">
<path fill-rule="evenodd" clip-rule="evenodd" d="M5.10998 2.8363C3.42398 2.8363 2.33398 3.99164 2.33398 5.7803V11.2256C2.33398 13.0143 3.42398 14.1696 5.10998 14.1696H10.8887C12.5767 14.1696 13.6673 13.0143 13.6673 11.2256V5.7803C13.6673 3.99164 12.5767 2.8363 10.89 2.8363H5.10998ZM10.8887 15.1696H5.10998C2.85132 15.1696 1.33398 13.5843 1.33398 11.2256V5.7803C1.33398 3.42164 2.85132 1.8363 5.10998 1.8363H10.89C13.1493 1.8363 14.6673 3.42164 14.6673 5.7803V11.2256C14.6673 13.5843 13.1493 15.1696 10.8887 15.1696Z" fill="black"/>
</g>
<path d="M8.88216 11.2334C8.88216 11.6511 8.54345 11.9898 8.12558 11.9898C7.70784 11.9898 7.36914 11.6511 7.36914 11.2334C7.36914 10.8155 7.70786 10.4768 8.12558 10.4768C8.54346 10.4768 8.88216 10.8155 8.88216 11.2334Z" fill="black"/>
<path d="M8.12509 9.87961C7.80651 9.87961 7.56763 9.62075 7.56763 9.32216C7.56763 8.66516 7.96578 8.08783 8.58296 7.82897C9.02096 7.64982 9.27985 7.21183 9.27985 6.75395C9.25999 6.15665 8.76225 5.65892 8.16498 5.63908C7.8464 5.63908 7.56767 5.73865 7.3288 5.95766C7.10979 6.17667 6.99036 6.45539 6.99036 6.77397C6.99036 7.09254 6.7315 7.33142 6.4329 7.33142C6.13418 7.33128 5.85547 7.07242 5.85547 6.77382C5.85547 6.15668 6.09434 5.57921 6.53234 5.14121C6.97034 4.70321 7.54767 4.48421 8.1848 4.50404C9.3594 4.5439 10.3549 5.51937 10.3947 6.71395C10.4146 7.64968 9.87711 8.48586 9.02094 8.86414C8.8218 8.94371 8.68251 9.123 8.68251 9.32201C8.68265 9.62087 8.44364 9.87961 8.12505 9.87961L8.12509 9.87961Z" fill="black"/>
</svg>

<svg width="16" height="17" viewBox="0 0 16 17" fill="none" xmlns="http://www.w3.org/2000/svg"><mask id="a" style="mask-type:alpha" maskUnits="userSpaceOnUse" x="1" y="1" width="14" height="15"><path fill-rule="evenodd" clip-rule="evenodd" d="M1.334 1.836h13.333V15.17H1.334V1.836z" fill="#fff"/></mask><g mask="url(#a)"><path fill-rule="evenodd" clip-rule="evenodd" d="M5.11 2.836c-1.686 0-2.776 1.156-2.776 2.944v5.446c0 1.788 1.09 2.944 2.776 2.944h5.779c1.688 0 2.778-1.156 2.778-2.944V5.78c0-1.788-1.09-2.944-2.777-2.944H5.11zm5.779 12.334H5.11c-2.259 0-3.776-1.586-3.776-3.944V5.78c0-2.358 1.517-3.944 3.776-3.944h5.78c2.26 0 3.777 1.586 3.777 3.944v5.446c0 2.358-1.518 3.944-3.778 3.944z" fill="#000"/></g><path d="M8.882 11.233a.757.757 0 1 1-1.513 0 .757.757 0 0 1 1.513 0zM8.125 9.88a.556.556 0 0 1-.557-.558c0-.657.398-1.234 1.015-1.493.438-.18.697-.617.697-1.075a1.168 1.168 0 0 0-1.115-1.115c-.319 0-.597.1-.836.319a1.128 1.128 0 0 0-.339.816.556.556 0 0 1-.557.557c-.299 0-.578-.259-.578-.557 0-.617.24-1.195.677-1.633a2.19 2.19 0 0 1 1.653-.637c1.174.04 2.17 1.015 2.21 2.21a2.285 2.285 0 0 1-1.374 2.15c-.2.08-.338.259-.338.458a.556.556 0 0 1-.558.558z" fill="#000"/></svg>
